X:1
T:Adieu magnifiques festins
T:Clemens non Papa (c. 1510 - 1555)
T:Adieu magnifiques festins
T:Réponse à Adieu delices
T:(C) Wim Looyestijn 2019. May be freely copied for non-commercial use.
T:(C) Wim Looyestijn 2019. May be freely copied for non-commercial use.
T:(C) Wim Looyestijn 2019. May be freely copied for non-commercial use.
T:(C) Wim Looyestijn 2019. May be freely copied for non-commercial use.
T:(C) Wim Looyestijn 2019. May be freely copied for non-commercial use.
T:(C) Wim Looyestijn 2019. May be freely copied for non-commercial use.
T:(C) Wim Looyestijn 2019. May be freely copied for non-commercial use.
C:Clemens non Papa
C:(c. 1510 - 1555)
Z:(C) Wim Looyestijn 2019. May be freely copied for non-commercial use.
%%score [ 1 2 3 4 ]
L:1/8
Q:1/4=120
M:2/2
K:C
V:1 alto1 nm="Superius"
V:2 alto nm="Contra tenor"
V:3 tenor nm="Tenor"
V:4 bass nm="Bassus"
V:1
 x8 | z8 | x8 | A8- | A8 | G8- | G4 G4 | F4 E4 | F4 D4 | E8- | E4 c4 | c4 c4 | B4 c4- | c4 B2 A2 | %14
w: |||A-||dieu|_ mag-|ni- fi-|ques fes-|tins,|_ a-|dieu mag-|ni- fi-|* ques fes-|
 G8 | z4 E4 | E8 | z4 A4 | A4 G4 | A4 c4 | B2 c2 A4 | G4 E4 | G4 A4 | c4 B4 | A4 A4 | G4 G4- | %26
w: tins,|a-|dieu|a-|dieu doulx|ba- si-|ers _ cou-|lum- bins,|a- dieu|doulx _|ba- si-|ers cou-|
 G4 F4- | F4 E4- | E4 D4 | E8 | z4 c4 | c4 B4 | A4 c4 | B4 A4 | G2 F2 E2 D2 | C2 D2 E2 F2 | %36
w: * lum-|* bins,|_ _||a-|dieu ce|que'en se-|cret nous|fai- * * *||
 G2 A2 B2 G2 | c4 B4- | B4 A4- | A4 G4 | A4 A4 | c4 c2 A2 | B4 c4 | A4 A4 | G4 G4 | A4 A2 A2 | %46
w: ||||sons quant|en- tre nous|deux _|iou- ons,|_ quant|_ en- tre|
 G4 A4 | G4 F4 | E4 E4 | E4 D4 | E8- | E8 | z4 A4 | A4 G4 | A4 A4 | B4 c4- | c2 B2 A4- | %57
w: nous _|deux _|iou- ons,|iou- *|ons,|_|a-|dieu ce-|luy qui|mon ceur|_ _ ay-|
 A2 G2 G2 FE | F8 | E8 | z4 c4 | B4 A4 | G4 c4 | B2 B2 A4 | G4 A4 | G4 F4 | E4 A4 | G2 G2 F4 | %68
w: ||me,|a-|dieu ly-|es- se|sou- ve- rai-|ne, a-|dieu ly-|es- se|sou- ve- rai-|
 E4 E4 | E4 D4 | G4 F4- | F2 E2 E4- | E4 D4 | E8- | E8- | E8- | E8- | E8- | E16 |] %79
w: ne, a-|dieu ly-|es- se|_ sou- ve-|* rei-|ne.|_|||||
V:2
 x8 | z8 | x8 | E8- | E8 | E8- | E4 E4 | C4 E4 | D2 C2 B,2 A,2 | B,8 | C6 D2 | E4 F4- | F4 E4- | %13
w: |||A-||dieu|_ mag-|ni- fi-|ques _ _ _|fes-|tins, a-|dieu doulx|_ ba-|
 E4 D4 | E8- | E4 D2 C2 | B,4 E4 | F8 | E4 D4 | E8 | z8 | E8 | E4 D4 | E4 G4 | F4 D4 | E6 DC | %26
w: * si-|ers|_ _ _|* cou-|lum-|bins, _|_||a-|dieu _|doulx _|ba- si-|ers _ _|
 B,2 C2 D4 | G,8 | A,6 B,2 | C4 B,4 | C8 | E8 | E4 E4 | D4 D4 | E8- | E4 D2 C2 | B,4 B,4 | %37
w: _ _ _|cou-|lum- *|bins, *||a-|dieu ce|que'en se-|cret|_ _ _|* nous|
 A,4 G,2 A,2 | B,2 C2 D2 CD | E8 | C4 E4 | E4 E2 F2 | G4 G4 | F4 F4 | D2 D2 D4 | F4 F2 F2 | D4 F4 | %47
w: fai- sons _|_ _ _ _ _||* quant|en- tre nous|_ deux,|quant en-|tre nous deux,|quant en- tre|nous _|
 E4 D4 | C6 B,C | B,4 A,4 | B,8 | z4 E4 | E4 D4 | E4 E4 | D4 C4 | B,4 G,4 | C6 D2 | E4 C4 | D8 | %59
w: deux _|iou- * *|ons, _|_|a-|dieu ce-|lu- y|qui mon|ceur ay-|me, _|_ _||
 G,8 | z4 G4 | G4 E4 | E4 G4 | G2 G2 F4 | D4 F4 | E4 D4 | E4 E4 | E2 E2 D4 | B,4 C4 | C4 A,4 | %70
w: |a-|dieu ly-|es- se|sou- ve- rai-|ne, a-|dieu ly-|es- se|sou- ve- rai-|ne, a-|dieu ly-|
 E4 D4 | B,4 C4 | A,4- A,2 B,2 | C8 | G,4 C4- | C4 B,4 | A,4 B,4 | E8 | B,16 |] %79
w: es- se|sou- ve-|rai- * *|ne,|ly- es-|* se|sou- ve-|rei-|ne.|
V:3
 x8 | z8 | x8 | A,8- | A,8 | B,8- | B,4 C4 | A,4 C4 | _B,2 A,2 A,4- | A,4 ^G,4 | A,8 | z4 C4 | %12
w: |||A-||dieu|_ mag-|ni- fi-|ques _ _|_ fes-|tins,|mag-|
 D4 G,4 | A,4 A,4 | B,8 | z4 A,4 | A,4 G,4 | A,4 D4 | C4 B,4 | A,4 E,4 | G,4 A,4 | C4 C4 | %22
w: ni- fi-|ques fes-|tins,|a-|dieu doulx|ba- si-|ers cou-|lum- bins,|ba- si-|ers cou-|
 B,4 A,4 | G,8 | z8 | E,8 | G,4 A,4 | C4 B,4- | B,4 A,4- | A,4 ^G,4 | A,8 | E,8 | z4 G,4 | %33
w: lum- bi-|nes,||doulx|ba- si-|ers cou-|* lum-||bins,|_|a-|
 G,4 A,4 | C4 B,4 | A,2 B,2 C2 D2 | E4 D4 | C4 E4 | D2 C2 B,2 A,2 | B,8 | A,4 C4 | C4 C2 C2 | %42
w: dieu ce|que'en se-|cret _ _ _|_ _|* nous|fai- * * *||sons quant|en- tre nous|
 D4 E4 | D4 C4 | B,4 C4 | C4 C2 A,2 | B,4 C4 | C4 A,4 | A,8 | z4 A,4 | A,4 ^G,4 | A,4 A,4 | %52
w: deux, nous|nous iou-|ons, _|quant en- tre|nous _|deux iou-|ons,|a-|dieu ce-|luy, a-|
 G,4 F,4 | E,8 | z4 E4 | E4 E4 | A,4 C4- | C2 B,2 G,4 | A,4 B,4 | C8 | z4 E4 | D4 C4 | B,4 E4 | %63
w: dieu ce-|luy,|a-|dieu ce-|luy qui|_ _ mon|ceur ay-|me,|a-|dieu ly-|es- se|
 D2 E2 C4 | B,4 A,4 | C4 A,4 | G,4 C4 | B,2 C2 A,4 | G,4 A,4 | G,4 F,4 | E,4 A,4 | G,6 E,2 | F,8 | %73
w: sou- ve- rai-|ne, a-|dieu ly-|es- se|sou- ve- rai-|ne, a-|dieu ly-|es- se|sou- ve-|rai-|
 E,4 E,4 | E,4 A,4 | A,4 G,4 | C4 B,4 | A,8 | ^G,16 |] %79
w: ne, a-|dieu ly-|es- se|sou- ve-|rei-|ne.|
V:4
"^Source: Second Livre des Chansons a Quatre, Imprimé à Lovain par Pierre Phalese, D.M.LIX.\nOriginal is badly damaged in Contratenor bars 42-43 and 63; supplied notes are editorial.\nSuggested musica ficta are placed above the stave, in-line accidentals are original." x8 | %1
w: |
 z8 | x8 | A,,8- | A,,8 | E,8- | E,4 E,4 | F,4 C,4 | D,4 F,4 | E,8 | z4 A,4 | A,4 A,4 | G,4 E,4 | %13
w: ||A-||dieu|_ mag-|ni- fi-|ques fes-|tins,|a-|dieu mag-|ni- fi-|
 F,8 | E,8 | C,6 D,2 | E,8 | D,8 | z8 | z4 E,4 | E,4 D,4 | E,4 A,4 | G,4 F,4 | E,8 | z8 | z4 E,4 | %26
w: ques|_|fes- *||tins,||a-|dieu doulx|ba- siers|cou- lum-|bins,||doulx|
 E,4 D,4 | E,6 G,2 | F,4 F,4 | E,8 | z4 A,4 | A,4 G,4 | A,4 E,4 | G,4 F,4 | E,8 | z4 A,4 | %36
w: ba- siers|cou- *|lum- bins,|_|a-|dieu ce|que'en se-|cret fai-|sons|a-|
 G,4 G,4 | A,4 E,4 | G,4 F,4 | E,8 | z4 A,,4 | A,6 A,2 | G,4 C,4 | F,4 F,4 | G,4 C,4 | F,6 F,2 | %46
w: dieu ce|que'en se-|cret fai-|sons|quant|en- tre|nous _|deux iou-|ons, quant|en- tre|
 G,4 F,4 | C,4 D,4 | A,,4 A,4 | G,4 F,4 | E,8 | z4 A,,4 | C,4 D,4 | A,,4 E,4 | F,4 A,4 | G,4 E,4 | %56
w: nous _|deux iou-|ons, a-|dieu ce-|luy,|a-|dieu ce-|luy qui|mon ceur|_ ay-|
 F,6 E,2 | C,4 E,4 | D,8 | C,8 | z4 C,4 | G,4 A,4 | E,4 C,4 | G,2 E,2 F,4 | G,4 F,4 | C,4 D,4 | %66
w: |||me,|a-|dieu ly-|es- se|sou- ve- rai-|ne, a-|dieu ly-|
 C,4 A,,4 | E,2 C,2 D,4 | E,4 A,,4 | C,4 D,4 | C,4 D,4 | E,4 C,4 | D,8 | A,,4 A,,4 | C,4 A,,4 | %75
w: es- se|sou- ve- rai-|ne, a-|dieu ly-|es- se|sou- ve-|rai-|ne, a-|dieu ly-|
 E,4 E,4 | A,,4 G,,4 | A,,8 | E,16 |] %79
w: es- se|sou- ve-|rei-|ne.|

